icons/circle/48/evolution.svg

<svg xmlns="http://www.w3.org/2000/svg" viewBox="0 0 48 48">
 <defs>
  <linearGradient id="linearGradient3764" y1="47" x2="0" y2="1" gradientUnits="userSpaceOnUse">
   <stop style="stop-color:#4ad0ec;stop-opacity:1"/>
   <stop offset="1" style="stop-color:#5cd3ee;stop-opacity:1"/>
  </linearGradient>
 </defs>
 <g>
  <path d="m 36.31 5 c 5.859 4.062 9.688 10.831 9.688 18.5 c 0 12.426 -10.07 22.5 -22.5 22.5 c -7.669 0 -14.438 -3.828 -18.5 -9.688 c 1.037 1.822 2.306 3.499 3.781 4.969 c 4.085 3.712 9.514 5.969 15.469 5.969 c 12.703 0 23 -10.298 23 -23 c 0 -5.954 -2.256 -11.384 -5.969 -15.469 c -1.469 -1.475 -3.147 -2.744 -4.969 -3.781 z m 4.969 3.781 c 3.854 4.113 6.219 9.637 6.219 15.719 c 0 12.703 -10.297 23 -23 23 c -6.081 0 -11.606 -2.364 -15.719 -6.219 c 4.16 4.144 9.883 6.719 16.219 6.719 c 12.703 0 23 -10.298 23 -23 c 0 -6.335 -2.575 -12.06 -6.719 -16.219 z" style="opacity:0.05"/>
  <path d="m 41.28 8.781 c 3.712 4.085 5.969 9.514 5.969 15.469 c 0 12.703 -10.297 23 -23 23 c -5.954 0 -11.384 -2.256 -15.469 -5.969 c 4.113 3.854 9.637 6.219 15.719 6.219 c 12.703 0 23 -10.298 23 -23 c 0 -6.081 -2.364 -11.606 -6.219 -15.719 z" style="opacity:0.1"/>
  <path d="m 31.25 2.375 c 8.615 3.154 14.75 11.417 14.75 21.13 c 0 12.426 -10.07 22.5 -22.5 22.5 c -9.708 0 -17.971 -6.135 -21.12 -14.75 a 23 23 0 0 0 44.875 -7 a 23 23 0 0 0 -16 -21.875 z" style="opacity:0.2"/>
 </g>
 <g>
  <path d="m 24 1 c 12.703 0 23 10.297 23 23 c 0 12.703 -10.297 23 -23 23 -12.703 0 -23 -10.297 -23 -23 0 -12.703 10.297 -23 23 -23 z" style="fill:url(#linearGradient3764);fill-opacity:1"/>
 </g>
 <g>
  <g>
   <g transform="translate(1,1)">
    <g style="opacity:0.1">
     <!-- color: #5cd3ee -->
     <g>
      <path d="m 24.998 12 -3 2 l -6.998 0 0 4.666 -2 1.334 l 0 14.285 c 0 1.714 0.005 1.715 1.783 1.715 6.815 0 13.63 0 20.445 0 1.777 0 1.771 0 1.771 -1.715 l 0 -14.285 -1.998 -1.332 0 -4.668 -7 0" transform="translate(-1,-1)"/>
     </g>
    </g>
   </g>
  </g>
 </g>
 <g>
  <g>
   <!-- color: #5cd3ee -->
   <g>
    <path d="m 13.781,35 20.445,0 c 1.777,0 1.773,0 1.773,-1.715 l 0,-14.285 -12,-8 -12,8 0,14.285 C 11.999,35 12.003,35 13.784,35" style="fill:#a61b12;fill-opacity:1;stroke:none;fill-rule:nonzero"/>
    <path d="m 14 13 0 20 20 0 0 -20" style="fill:#f9f9f9;fill-opacity:1;stroke:none;fill-rule:nonzero"/>
    <path d="m 13.781 35 20.445 0 c 1.777 0 1.773 0 1.773 -1.68 l 0 -14.32 -24 14.32 c 0 1.68 0.004 1.68 1.785 1.68" style="fill:#cf372d;fill-opacity:1;stroke:none;fill-rule:nonzero"/>
    <path d="m 34.23 35 -20.445 0 c -1.781 0 -1.781 0 -1.781 -1.68 l 0 -14.32 24 14.32 c 0 1.68 0 1.68 -1.77 1.68" style="fill:#ec5145;fill-opacity:1;stroke:none;fill-rule:nonzero"/>
    <path d="m 16.355,15 7.289,0 c 0.195,0 0.355,0.16 0.355,0.355 l 0,0.289 c 0,0.195 -0.16,0.355 -0.355,0.355 l -7.289,0 C 16.16,15.999 16,15.839 16,15.644 l 0,-0.289 C 16,15.16 16.16,15 16.355,15 m 0,0" style="fill:#c3cacd;fill-opacity:1;stroke:none;fill-rule:nonzero"/>
    <path d="m 16.355,17 11.289,0 c 0.195,0 0.355,0.16 0.355,0.355 l 0,0.289 c 0,0.195 -0.16,0.355 -0.355,0.355 l -11.289,0 C 16.16,17.999 16,17.839 16,17.644 l 0,-0.289 C 16,17.16 16.16,17 16.355,17 m 0,0" style="fill:#c3cacd;fill-opacity:1;stroke:none;fill-rule:nonzero"/>
    <path d="m 16.355,19 15.289,0 c 0.195,0 0.355,0.16 0.355,0.355 l 0,0.289 c 0,0.195 -0.16,0.355 -0.355,0.355 l -15.289,0 C 16.16,19.999 16,19.839 16,19.644 l 0,-0.289 C 16,19.16 16.16,19 16.355,19 m 0,0" style="fill:#c3cacd;fill-opacity:1;stroke:none;fill-rule:nonzero"/>
   </g>
  </g>
 </g>
 <g>
  <path d="m 40.03 7.531 c 3.712 4.084 5.969 9.514 5.969 15.469 0 12.703 -10.297 23 -23 23 c -5.954 0 -11.384 -2.256 -15.469 -5.969 4.178 4.291 10.01 6.969 16.469 6.969 c 12.703 0 23 -10.298 23 -23 0 -6.462 -2.677 -12.291 -6.969 -16.469 z" style="opacity:0.1"/>
 </g>
</svg>

<svg xmlns="http://www.w3.org/2000/svg" viewBox="0 0 48 48">
  <defs>
    <linearGradient id="a" y1="47" x2="0" y2="1" gradientUnits="userSpaceOnUse">
      <stop stop-color="#4ad0ec"/>
      <stop offset="1" stop-color="#5cd3ee"/>
    </linearGradient>
  </defs>
  <path d="M36.31 5c5.859 4.062 9.688 10.831 9.688 18.5 0 12.426-10.07 22.5-22.5 22.5-7.669 0-14.438-3.828-18.5-9.688a23.24 23.24 0 0 0 3.781 4.969 22.923 22.923 0 0 0 15.469 5.969c12.703 0 23-10.298 23-23a22.92 22.92 0 0 0-5.969-15.469A23.216 23.216 0 0 0 36.31 5zm4.969 3.781A22.911 22.911 0 0 1 47.498 24.5c0 12.703-10.297 23-23 23a22.909 22.909 0 0 1-15.719-6.219C12.939 45.425 18.662 48 24.998 48c12.703 0 23-10.298 23-23 0-6.335-2.575-12.06-6.719-16.219z" opacity=".05"/>
  <path d="M41.28 8.781a22.923 22.923 0 0 1 5.969 15.469c0 12.703-10.297 23-23 23A22.92 22.92 0 0 1 8.78 41.281 22.911 22.911 0 0 0 24.499 47.5c12.703 0 23-10.298 23-23A22.909 22.909 0 0 0 41.28 8.781z" opacity=".1"/>
  <path d="M31.25 2.375C39.865 5.529 46 13.792 46 23.505c0 12.426-10.07 22.5-22.5 22.5-9.708 0-17.971-6.135-21.12-14.75a23 23 0 0 0 44.875-7 23 23 0 0 0-16-21.875z" opacity=".2"/>
  <path d="M24 1c12.703 0 23 10.297 23 23S36.703 47 24 47 1 36.703 1 24 11.297 1 24 1z" fill="url(#a)"/>
  <path d="M24.998 12l-3 2H15v4.666L13 20v14.285c0 1.714.005 1.715 1.783 1.715h20.445c1.777 0 1.771 0 1.771-1.715V20l-1.998-1.332V14h-7" opacity=".1"/>
  <g>
    <path d="M13.781 35h20.445c1.777 0 1.773 0 1.773-1.715V19l-12-8-12 8v14.285c0 1.715.004 1.715 1.785 1.715" fill="#a61b12"/>
    <path d="M14 13v20h20V13" fill="#f9f9f9"/>
    <path d="M13.781 35h20.445c1.777 0 1.773 0 1.773-1.68V19l-24 14.32c0 1.68.004 1.68 1.785 1.68" fill="#cf372d"/>
    <path d="M34.23 35H13.785c-1.781 0-1.781 0-1.781-1.68V19l24 14.32c0 1.68 0 1.68-1.77 1.68" fill="#ec5145"/>
    <path d="M16.355 15h7.289c.195 0 .355.16.355.355v.289c0 .195-.16.355-.355.355h-7.289a.356.356 0 0 1-.355-.355v-.289c0-.195.16-.355.355-.355m0 0M16.355 17h11.289c.195 0 .355.16.355.355v.289c0 .195-.16.355-.355.355H16.355a.356.356 0 0 1-.355-.355v-.289c0-.195.16-.355.355-.355m0 0M16.355 19h15.289c.195 0 .355.16.355.355v.289c0 .195-.16.355-.355.355H16.355a.356.356 0 0 1-.355-.355v-.289c0-.195.16-.355.355-.355m0 0" fill="#c3cacd"/>
  </g>
  <g>
    <path d="M40.03 7.531A22.922 22.922 0 0 1 45.999 23c0 12.703-10.297 23-23 23A22.92 22.92 0 0 1 7.53 40.031C11.708 44.322 17.54 47 23.999 47c12.703 0 23-10.298 23-23 0-6.462-2.677-12.291-6.969-16.469z" opacity=".1"/>
  </g>
</svg>
